svgs/sharp-solid/signal-slash.svg

<svg xmlns="http://www.w3.org/2000/svg" viewBox="0 0 640 512"><!--! Font Awesome Pro 6.6.0 by @fontawesome - https://fontawesome.com License - https://fontawesome.com/license (Commercial License) Copyright 2024 Fonticons, Inc. --><path d="M544 512l64 0s0 0 0 0l-64 0s0 0 0 0zm0-112.4L544 32l0-32 64 0 0 32 0 417.3 12.9 10 19 14.7-29.4 37.9-19-14.7L19 52.7 0 38 29.4 .1l19 14.7L288 200.8l0-8.8 64 0 0 32 0 26.5 64 49.7L416 128l0-32 64 0 0 32 0 221.9 64 49.7zm-64 74.6l0 5.8 0 32-64 0 0-32 0-56.2 64 50.4zM352 373.3L352 480l0 32-64 0 0-32 0-157.1 64 50.4zM224 288l0 32 0 160 0 32-64 0 0-32 0-160 0-32 64 0zM96 416l0 64 0 32-64 0 0-32 0-64 0-32 64 0 0 32z"/></svg>

<svg xmlns="http://www.w3.org/2000/svg" viewBox="0 0 640 512"><!--! Font Awesome Pro 6.4.0 by @fontawesome - https://fontawesome.com License - https://fontawesome.com/license (Commercial License) Copyright 2023 Fonticons, Inc. --><path d="M544 512h64v0H544v0zm0-112.4V32 0h64V32 449.3l12.9 10 19 14.7-29.4 37.9-19-14.7L19 52.7 0 38 29.4 .1l19 14.7L288 200.8V192h64v32 26.5l64 49.7V128 96h64v32V349.9l64 49.7zm-64 74.6V480v32H416V480 423.8l64 50.4zM352 373.3V480v32H288V480 322.9l64 50.4zM224 288v32V480v32H160V480 320 288h64zM96 416v64 32H32V480 416 384H96v32z"/></svg>
